src/Icon/svgs/Caption.svg

<svg xmlns="http://www.w3.org/2000/svg" width="24" height="24" fill="#1B1C1D"><path d="M18.5 2v4h-2V4h-5v16h2v2h-6v-2h2V4h-5v2h-2V2h16zM22 14v1.5h-2.75v5h1.25V22h-4v-1.5h1.25v-5H15V14h7z"/></svg>

<svg width="24" height="24" viewBox="0 0 24 24" fill="none" xmlns="http://www.w3.org/2000/svg">
<path d="M18.5 2V6H16.5V4H11.5V20H13.5V22H7.5V20H9.5V4H4.5V6H2.5V2H18.5Z" fill="#1B1C1D"/>
<path d="M22 14V15.5H19.25V20.5H20.5V22H16.5V20.5H17.75V15.5H15V14H22Z" fill="#1B1C1D"/>
</svg>
